icons/accessibility-inset-24.svg

<svg width="24" height="24" viewBox="0 0 24 24">
  <path
    d="M12 0C5.37258 0 0 5.37258 0 12C0 18.6274 5.37258 24 12 24C18.6274 24 24 18.6274 24 12C24 5.37258 18.6274 0 12 0ZM14.5 6.5C14.5 7.88071 13.3807 9 12 9C10.6193 9 9.5 7.88071 9.5 6.5C9.5 5.11929 10.6193 4 12 4C13.3807 4 14.5 5.11929 14.5 6.5ZM12 9H18.375C18.7892 9 19.125 9.33579 19.125 9.75C19.125 10.1642 18.7892 10.5 18.375 10.5H14.3474L14.8887 14.9201L15.3707 19.4201C15.4149 19.832 15.1168 20.2016 14.7049 20.2457C14.293 20.2899 13.9234 19.9918 13.8793 19.5799L13.4689 15.75H10.5311L10.1207 19.5799C10.0766 19.9918 9.70696 20.2899 9.2951 20.2457C8.88325 20.2016 8.58514 19.832 8.62927 19.4201L9.11262 14.9088L9.65255 10.5H5.625C5.21079 10.5 4.875 10.1642 4.875 9.75C4.875 9.33579 5.21079 9 5.625 9H12Z"
  />
</svg>

<svg xmlns="http://www.w3.org/2000/svg" width="24" height="24" viewBox="0 0 24 24"><path d="M12 0C5.373 0 0 5.373 0 12s5.373 12 12 12 12-5.373 12-12S18.627 0 12 0Zm2.5 6.5a2.5 2.5 0 1 1-5 0 2.5 2.5 0 0 1 5 0ZM12 9h6.375a.75.75 0 0 1 0 1.5h-4.028l.542 4.42.482 4.5a.75.75 0 1 1-1.492.16l-.41-3.83H10.53l-.41 3.83a.75.75 0 1 1-1.492-.16l.484-4.511.54-4.409H5.625a.75.75 0 0 1 0-1.5H12Z"/></svg>
